svg/fluentui-system-icons/ic_fluent_table_lock_48_filled.svg

<svg width="48" height="48" viewBox="0 0 48 48" fill="none" xmlns="http://www.w3.org/2000/svg">
<path d="M12.25 6C8.79822 6 6 8.79822 6 12.25V16.5H16.5V6H12.25ZM19 6V16.5H29V6H19ZM16.5 19H6V29H16.5V19ZM19 29V19H29V28.416C28.6428 28.5721 28.3074 28.7687 27.9995 29H19ZM37 22C38.9587 22 40.7295 22.8045 42 24.101V19L31.5 19V24.6694C32.7818 23.0437 34.769 22 37 22ZM26 33C26 32.4774 26.0802 31.9735 26.2289 31.5H19V42H26V33ZM16.5 31.5H6V35.75C6 39.2018 8.79822 42 12.25 42H16.5V31.5ZM42 16.5V12.25C42 8.79822 39.2018 6 35.75 6H31.5V16.5L42 16.5ZM32 30H31C29.3431 30 28 31.3431 28 33V43C28 44.6569 29.3431 46 31 46H43C44.6569 46 46 44.6569 46 43V33C46 31.3431 44.6569 30 43 30H42V29C42 26.2386 39.7614 24 37 24C34.2386 24 32 26.2386 32 29V30ZM34.5 29C34.5 27.6193 35.6193 26.5 37 26.5C38.3807 26.5 39.5 27.6193 39.5 29V30H34.5V29ZM40 38C40 39.6569 38.6569 41 37 41C35.3431 41 34 39.6569 34 38C34 36.3431 35.3431 35 37 35C38.6569 35 40 36.3431 40 38Z" fill="#212121"/>
</svg>

<svg xmlns="http://www.w3.org/2000/svg" width="48" height="48"><path d="M12.25 6A6.25 6.25 0 0 0 6 12.25v4.25h10.5V6h-4.25ZM19 6v10.5h10V6H19Zm-2.5 13H6v10h10.5V19ZM19 29V19h10v9.416A4.999 4.999 0 0 0 28 29h-9Zm18-7a6.98 6.98 0 0 1 5 2.101V19H31.5v5.67A6.988 6.988 0 0 1 37 22ZM26 33c0-.523.08-1.026.229-1.5H19V42h7v-9Zm-9.5-1.5H6v4.25A6.25 6.25 0 0 0 12.25 42h4.25V31.5Zm25.5-15v-4.25A6.25 6.25 0 0 0 35.75 6H31.5v10.5H42ZM32 30h-1a3 3 0 0 0-3 3v10a3 3 0 0 0 3 3h12a3 3 0 0 0 3-3V33a3 3 0 0 0-3-3h-1v-1a5 5 0 0 0-10 0v1Zm2.5-1a2.5 2.5 0 0 1 5 0v1h-5v-1Zm5.5 9a3 3 0 1 1-6 0 3 3 0 0 1 6 0Z"/></svg>
